src/static/logos/looker.svg

<?xml version="1.0" encoding="UTF-8" standalone="no"?>
<svg width="512px" height="200px" viewBox="0 0 512 200" version="1.1" xmlns="http://www.w3.org/2000/svg" xmlns:xlink="http://www.w3.org/1999/xlink" preserveAspectRatio="xMidYMid">
	<g>
		<path d="M17.1007808,157.508772 L17.1007808,44.4444289 L0,44.4444289 L0,158.118365 C0,184.903935 16.888282,199.433267 41.5274011,196.548436 L41.5274011,180.218232 C28.5048786,180.827823 17.1007808,176.10563 17.1007808,157.508772 L17.1007808,157.508772 Z M92.866233,182.452688 C73.5245566,182.452688 57.6172031,165.287513 57.6172031,144.232969 C57.6172031,122.749133 73.5245566,105.154669 92.866233,105.154669 C112.386065,105.154669 128.263368,122.749133 128.263368,144.232969 C128.263368,165.287513 112.386065,182.452688 92.866233,182.452688 L92.866233,182.452688 Z M92.866233,88.6055263 C63.1378769,88.6055263 40.1150359,113.551588 40.1150359,144.232969 C40.1150359,174.489352 63.1378769,199.214328 92.866233,199.214328 C122.779184,199.214328 145.578794,174.487205 145.578794,144.232969 C145.578794,113.551588 122.779184,88.6055263 92.866233,88.6055263 L92.866233,88.6055263 Z M354.668947,91.2714193 L329.227055,91.2714193 L281.38694,138.506235 L281.38694,44.4444289 L264.071514,44.4444289 L264.071514,196.554875 L281.38694,196.554875 L281.38694,162.62806 L301.527096,142.975148 L337.349228,196.554875 L358.317915,196.554875 L314.150378,130.716762 L354.668947,91.2714193 L354.668947,91.2714193 Z M364.847421,132.981269 C369.322773,114.994004 384.586191,104.360482 399.053275,104.360482 C414.314547,104.360482 428.566986,115.796777 432.85345,132.981269 L364.847421,132.981269 L364.847421,132.981269 L364.847421,132.981269 Z M399.051129,88.6055263 C369.936659,88.6055263 346.332129,113.551588 346.332129,144.02047 C346.332129,174.884299 369.934511,199.006123 400.055669,199.006123 C424.301987,199.006123 442.203394,186.342058 449.527088,163.84939 L431.196389,163.84939 C425.49756,176.103483 414.926286,183.283364 400.055669,183.283364 C382.774586,183.283364 366.068752,170.374604 363.830002,148.523725 L451.978335,148.523725 C452.195127,111.104633 426.113592,88.6055263 399.051129,88.6055263 L399.051129,88.6055263 Z M477.630579,103.134858 L477.630579,91.2757122 L460.931185,91.2757122 L460.931185,196.550583 L478.244464,196.550583 L478.244464,135.623551 C478.244464,114.569006 493.720382,104.974367 511.832141,105.987492 L511.832141,88.8223179 C499.820597,87.3756095 485.570305,91.8853045 477.630579,103.134858 L477.630579,103.134858 Z" fill="#3E4345"></path>
		<path d="M203.202436,88.6055263 C195.447306,88.6055263 188.179421,90.3183947 181.654207,93.3856742 L192.719167,106.964127 C196.028995,105.802897 199.555615,105.154669 203.202436,105.154669 C222.722268,105.154669 238.629621,122.749133 238.629621,144.232969 C238.629621,165.287513 222.722268,182.452688 203.202436,182.452688 C183.86076,182.452688 167.983457,165.287513 167.983457,144.232969 C167.983457,131.326355 173.716629,119.898646 182.482738,112.759547 L171.664621,99.5180868 C158.727957,109.664364 150.483436,125.902271 150.483436,144.232969 C150.483436,174.489352 173.471933,199.214328 203.202436,199.214328 C233.115387,199.214328 255.914997,174.487205 255.914997,144.232969 C255.914997,113.551588 233.11324,88.6055263 203.202436,88.6055263 L203.202436,88.6055263 Z M174.025718,69.2359462 C174.025718,73.5567534 172.21626,77.4804671 169.303525,80.2386575 L176.811813,89.4619605 C182.360391,84.4972177 185.882717,77.2658219 185.882717,69.2337997 C185.882717,63.2902749 183.957351,57.7996514 180.735526,53.3264461 L171.692525,61.1438232 C173.169284,63.50492 174.025718,66.2631105 174.025718,69.2359462 L174.025718,69.2359462 Z M158.854598,84.4693138 C150.485582,84.4693138 143.683477,77.6328652 143.683477,69.2359462 C143.683477,60.8411735 150.485582,54.0025784 158.854598,54.0025784 C161.795236,54.0025784 164.553426,54.865452 166.884473,56.3314785 L176.10563,48.3659962 C171.422073,44.4422825 165.409861,42.0854785 158.854598,42.0854785 C143.923879,42.0854785 131.792135,54.2515668 131.792135,69.2359462 C131.792135,84.2267648 143.926027,96.3928531 158.854598,96.3928531 C162.593717,96.3928531 166.178291,95.6265698 169.458069,94.2120581 L161.335896,84.2525222 C160.507365,84.3770165 159.680982,84.4693138 158.854598,84.4693138 L158.854598,84.4693138 Z M206.205322,19.2493788 C212.485839,19.2493788 217.575077,24.3665198 217.575077,30.6770877 C217.575077,36.9962416 212.485839,42.1112359 206.205322,42.1112359 C202.925544,42.1112359 199.980612,40.7053101 197.894261,38.4365106 L191.160842,44.2898845 C194.867764,48.4218039 200.231747,51.064086 206.205322,51.064086 C217.394775,51.064086 226.49573,41.9287876 226.49573,30.6770877 C226.49573,19.4640241 217.396921,10.2986753 206.205322,10.2986753 C199.615715,10.2986753 193.785952,13.4883025 190.081177,18.3929446 L198.881629,22.0097157 C200.87139,20.3183118 203.414935,19.2493788 206.205322,19.2493788 L206.205322,19.2493788 Z M194.833421,30.6792342 C194.833421,28.6572766 195.385059,26.7855708 196.305887,25.1349494 L187.999119,21.7263841 C186.683344,24.4266203 185.919207,27.4595566 185.919207,30.6792342 C185.919207,34.1715111 186.805692,37.4491429 188.338258,40.3039236 L195.421549,34.1715111 C195.073824,33.0703814 194.833421,31.9027117 194.833421,30.6792342 L194.833421,30.6792342 Z M163.696993,27.1569069 C169.522463,27.1569069 174.457155,23.4177881 176.352471,18.176153 L170.866141,15.9395503 C169.859456,18.9724866 167.034725,21.2069428 163.696993,21.2069428 C159.49424,21.2069428 156.096407,17.7747665 156.096407,13.5805999 C156.096407,9.38214039 159.492094,5.98001445 163.696993,5.98001445 C167.833205,5.98001445 171.20528,9.31774684 171.267528,13.486156 L176.966357,15.8129097 C177.092998,15.0809696 177.20676,14.3425903 177.20676,13.5805999 C177.208906,6.10236219 171.140888,0 163.696993,0 C156.218755,0 150.146443,6.10236219 150.146443,13.5805999 C150.146443,21.0824487 156.216609,27.1569069 163.696993,27.1569069 L163.696993,27.1569069 Z" fill="#652B81"></path>
	</g>
</svg>

<svg width="512" height="200" xmlns="http://www.w3.org/2000/svg" preserveAspectRatio="xMidYMid"><path d="M17.1 157.509V44.444H0v113.674c0 26.786 16.888 41.315 41.527 38.43v-16.33c-13.022.61-24.426-4.112-24.426-22.71zm75.766 24.944c-19.341 0-35.249-17.165-35.249-38.22 0-21.484 15.908-39.078 35.25-39.078 19.52 0 35.396 17.594 35.396 39.078 0 21.055-15.877 38.22-35.397 38.22zm0-93.847c-29.728 0-52.751 24.946-52.751 55.627 0 30.256 23.023 54.981 52.751 54.981 29.913 0 52.713-24.727 52.713-54.981 0-30.681-22.8-55.627-52.713-55.627zM354.67 91.27h-25.442l-47.84 47.235V44.444h-17.315v152.11h17.315v-33.926l20.14-19.653 35.822 53.58h20.969l-44.168-65.838L354.67 91.27zm10.178 41.71c4.476-17.987 19.74-28.62 34.206-28.62 15.262 0 29.514 11.436 33.8 28.62h-68.006zm34.204-44.375c-29.114 0-52.719 24.946-52.719 55.414 0 30.864 23.603 54.986 53.724 54.986 24.246 0 42.147-12.664 49.471-35.157h-18.33c-5.7 12.254-16.27 19.434-31.141 19.434-17.281 0-33.987-12.908-36.226-34.76h88.148c.217-37.418-25.864-59.917-52.927-59.917zm78.58 14.529v-11.86h-16.7V196.55h17.313v-60.927c0-21.055 15.476-30.65 33.588-29.637V88.822c-12.011-1.446-26.262 3.063-34.201 14.313z" fill="#3E4345"/><path d="M203.202 88.606c-7.755 0-15.023 1.712-21.548 4.78l11.065 13.578a31.617 31.617 0 0110.483-1.81c19.52 0 35.428 17.595 35.428 39.079 0 21.055-15.908 38.22-35.428 38.22-19.341 0-35.219-17.165-35.219-38.22 0-12.907 5.734-24.334 14.5-31.473l-10.818-13.242c-12.937 10.146-21.182 26.384-21.182 44.715 0 30.256 22.989 54.981 52.72 54.981 29.912 0 52.712-24.727 52.712-54.981 0-30.681-22.802-55.627-52.713-55.627zm-29.176-19.37c0 4.32-1.81 8.244-4.722 11.003l7.508 9.223c5.548-4.965 9.07-12.196 9.07-20.228 0-5.944-1.925-11.434-5.146-15.908l-9.043 7.818a15.178 15.178 0 012.333 8.092zm-15.171 15.233c-8.37 0-15.172-6.836-15.172-15.233 0-8.395 6.803-15.233 15.172-15.233 2.94 0 5.698.862 8.03 2.328l9.22-7.965c-4.683-3.924-10.695-6.28-17.25-6.28-14.931 0-27.063 12.166-27.063 27.15 0 14.99 12.134 27.157 27.063 27.157a26.71 26.71 0 0010.603-2.18l-8.122-9.96c-.829.124-1.655.216-2.481.216zm47.35-65.22c6.28 0 11.37 5.118 11.37 11.428 0 6.32-5.09 11.434-11.37 11.434-3.28 0-6.224-1.406-8.31-3.674l-6.734 5.853c3.707 4.132 9.07 6.774 15.044 6.774 11.19 0 20.29-9.135 20.29-20.387 0-11.213-9.098-20.378-20.29-20.378-6.59 0-12.419 3.19-16.124 8.094l8.8 3.617c1.99-1.692 4.534-2.76 7.324-2.76zm-11.372 11.43c0-2.022.552-3.893 1.473-5.544l-8.307-3.409a20.383 20.383 0 00-2.08 8.953c0 3.493.887 6.77 2.42 9.625l7.083-6.132c-.348-1.102-.589-2.27-.589-3.493zm-31.136-3.522c5.825 0 10.76-3.74 12.655-8.98l-5.486-2.237c-1.007 3.032-3.831 5.267-7.169 5.267-4.203 0-7.6-3.432-7.6-7.626a7.595 7.595 0 017.6-7.601c4.136 0 7.508 3.338 7.57 7.506l5.7 2.327c.126-.732.24-1.47.24-2.232C177.209 6.102 171.14 0 163.697 0c-7.478 0-13.55 6.102-13.55 13.58 0 7.502 6.07 13.577 13.55 13.577z" fill="#652B81"/></svg>
